icon/tiktok.svg

<svg width="37" height="37" viewBox="0 0 37 37" fill="none" xmlns="http://www.w3.org/2000/svg">
<path d="M25.1975 8.83424C24.1598 7.64969 23.588 6.12845 23.5885 4.55371H18.8981V23.3759C18.8619 24.3944 18.4319 25.3592 17.6986 26.067C16.9653 26.7749 15.9859 27.1705 14.9667 27.1707C12.8113 27.1707 11.0201 25.4099 11.0201 23.2241C11.0201 20.6133 13.5399 18.6552 16.1355 19.4597V14.663C10.8987 13.9648 6.31458 18.0328 6.31458 23.2241C6.31458 28.2787 10.504 31.8762 14.9515 31.8762C19.7178 31.8762 23.5885 28.0055 23.5885 23.2241V13.6764C25.4904 15.0423 27.7739 15.7751 30.1155 15.7711V11.0808C30.1155 11.0808 27.2618 11.2174 25.1975 8.83424Z" fill="#0F4E6D"/>
</svg>

<?xml version="1.0" encoding="UTF-8"?>
<svg fill="none" viewBox="0 0 37 37" xmlns="http://www.w3.org/2000/svg">
<path d="m25.198 8.8342c-1.0377-1.1846-1.6095-2.7058-1.609-4.2805h-4.6904v18.822c-0.0362 1.0185-0.4662 1.9833-1.1995 2.6911-0.7333 0.7079-1.7127 1.1035-2.7319 1.1037-2.1554 0-3.9466-1.7608-3.9466-3.9466 0-2.6108 2.5198-4.5689 5.1154-3.7644v-4.7967c-5.2368-0.6982-9.8209 3.3698-9.8209 8.5611 0 5.0546 4.1894 8.6521 8.6369 8.6521 4.7663 0 8.637-3.8707 8.637-8.6521v-9.5477c1.9019 1.3659 4.1854 2.0987 6.527 2.0947v-4.6903s-2.8537 0.1366-4.918-2.2466z" fill="#0F4E6D"/>
</svg>
